X:57
T:Church Street Polka
M:2/4
L:1/8
Q:120
R:Polka (Key of G)
K:Gmaj
G/A/ |: "G"BG DG | "C"Ec cA/B/ | "Am"cE FE | "D"Dd d/e/d/c/ |
"G"BG DG | "C"Ec cA/B/ | "D" c/B/A/G/ F/D/E/F/ |1 "G"GB GG/A/ :|2 "G"GB G2 |:
"G"g2 f2 | "C"c3 d | "D"ef/e/ de/d/ | "G"B3 c |
d>e dB | "Am" A3 B/2A/2 |1 "D"GA Bc | "G"de/d/ "D"Bd :|2 "D"Gg fa | "G"g3 |]
